X: 23722
T: Lisnagun, The
R: jig
M: 6/8
K: Dmajor
|:dBA ddd|efa f3|efa fed|edB dBA|
dBA ddd|efa f3|efa fed|1 edB dBA:|2 edB def||
|:a3 f3|efa fff|efa fed|edB def|
[1 a3 f3|efa fff|efa fed|edB def:|
[2 dBA ddd|efa f3|efa fed|edB dBA||

